!!!OTL: Ritou chulai mantianhong
!!!ARE: Asia, China,ÿGuangxi Yulin
!! II, 452
!!!SCT: C1979
!!!YEM: Copyright 1995, estate of Helmut Schaffrath.
**kern
*ICvox
*Ivox
*M2/4
*k[f#]
*G:
{4b
4dd
=1
4ee
4dd
=2
4ee
4dd
=3
8ee
8dd
[4b
=4
4b]
8dd
8ee}
=5
{4e
8g
8a
=6
4b
8a
8b
=7
4a
4e
=8
8g
[4.e
=9
4e]
4r}
=10
{4a
8g
8a
=11
4e
4g
=12
4b
4a
=13
8e
8a
[4g
=14
4.g]
16a
16b}
=15
{4e
4e
=16
4b
8a
8b
=17
4a
4e
=18
8g
4.e}
=19
{16g
16a
4.b
=20
4a
4e
=21
8e
4.g}
=22
{16g
16a
4.b
=23
8a
8g
[4e
=24
4e]
4r}
==
!!!AGN: Shange, Da shange
!!!AMT: simple duple
!!!AIN: vox
!!!EED: Helmut Schaffrath
!!!EEV: 1.0
*-
!!!ONB: Tied note syntax fixed by Craig Sapp, 2004/05/03/
